X:1
T: Sir Alexander Don's Strathspey
C:Robert Mackintosh
R:Strathspey
Q: 128
K:Gm
M:4/4
L:1/16
d2|BG3 G3D B,A,3 G,2B2|AGF2 cBA2 f2c2 A2d2|BG3 G3D B,3A, G,g3|fedc dcCA B2G2 G2d2|
BG3 G3D B,A,3 G,2B2|AGF2 cBA2 f2c2 A2d2|BG3 G3D B,3A, G,g3|fedc dcCA B2G2 G2d2|
gd3 BG3 bg3 dB3|fc3 AF3 af3 cA3|gd3 BG3 bg3 dB3|c3e dcBA B2G2 G2d2|
gd3 BG3 bg3 dB3|fc3 AF3 af3 cA3|db3 ca3 Bg3 A^f3|g3e dcBA B2G2 G2D2|
G,D3 B,G3 Dd3 BG3|A,F3 CF3 Cc3 AF3|G,D3 B,G3 Dd3 BA3|c3e dcBA BG3 G2D2|
G,D3 B,G3 Dd3 BG3|A,F3 CF3 A,c3 AF3|GB3 DG3 B,3D C3E|D3C B,3A, B,2G,2 G,2d2|
BAG2 dcB2 b3g dB3|AGF2 cBA2 a3f cA3|BAG2 dcB2 b3g dB3|ABc2 dcBA B2G2 G2d2|
BAG2 dcB2 b3g dB3|AGF2 cBA2 a3f cA3|db3 ca3 Bg3 A^f3|g3e dcBA B2G2 G2||
